src/icons/icons_set_02/042-lien.svg

<svg height="50" viewBox="0 0 50 50" width="50" xmlns="http://www.w3.org/2000/svg"><g fill="none" fill-rule="nonzero"><path d="m41 14.5673749-11.2282385 10.4326251-2.7717615-2.850808 11.9994523-11.149192h-6.9994523v-4h13v12.75h-4zm-3 25.4326251v-14.5527541h4v18.5527541h-34v-34h19.6593844v4h-15.6593844v26z" fill="#000"/><path d="m32 9h11v10.75"/></g></svg>

<?xml version="1.0" encoding="UTF-8"?>
<svg width="50px" height="50px" viewBox="0 0 50 50" version="1.1" xmlns="http://www.w3.org/2000/svg" xmlns:xlink="http://www.w3.org/1999/xlink">
    <!-- Generator: Sketch 52.4 (67378) - http://www.bohemiancoding.com/sketch -->
    <title>042-lien</title>
    <desc>Created with Sketch.</desc>
    <g id="042-lien" stroke="none" stroke-width="1" fill="none" fill-rule="evenodd">
        <path d="M41,14.5673749 L29.7717615,25 L27,22.149192 L38.9994523,11 L32,11 L32,7 L45,7 L45,19.75 L41,19.75 L41,14.5673749 Z M38,40 L38,25.4472459 L42,25.4472459 L42,44 L8,44 L8,10 L27.6593844,10 L27.6593844,14 L12,14 L12,40 L38,40 Z" id="Combined-Shape" fill="#000000" fill-rule="nonzero"></path>
        <polyline id="Path" fill-rule="nonzero" points="32 9 43 9 43 19.75"></polyline>
    </g>
</svg>
